!! 00047] TT[KA
!! NN
!!!OTL: Dang hu chuan, Boot auf dem Trockenen)
!!!ARE: Asia, China,ÿJiangsu, Jingjiang
!! Ethnic Group: Han
!! III, 442
!!!SCT: C0320
!!!YEM: Copyright 1995, estate of Helmut Schaffrath.
**kern
*ICvox
*Ivox
*M2/4
*k[f#c#]
*D:
{8a
16a
16f#
8a
8b
=1
8a
8b
4dd
=2
8.ee
16ff#
8dd
8b
=3
8b
8a
4a}
=4
{8f#
8dd
8b
8a
=5
8a
8b
4d
=6
8e
8d
4e}
=7
{8a
8f#
8a
8a
=8
8.a
16b
8dd
8b
=9
8b
8a
8a
8f#}
=10
{8.dd
16b
8b
8b
=11
4.a
8f#}
=12
{4a
4e
=13
8a
4f#
8e
=14
4d
8d
8e
=15
4d
4r}
=16
{8a
16b
16dd
8a
8f#
=17
4e
4e
=18
8f#
16f#
16e
8d
8d
=19
4e
4e}
=20
{8a
8f#
4a
=21
8a
8b
4dd
=22
8.ee
16ff#
8dd
8b
=23
8b
8a
4a}
=24
{4a
4e
=25
8a
4f#
8e
=26
4d
8d
8e
=27
2d}
==
!!!AGN: Wuge, Paohanchuan. Xin minge
!! Vor- und Nachspiel weggelassen.
!!!ONB: ESAC (Essen Associative Code) Database: CHINA
!!!AMT: simple duple
!!!AIN: vox
!!!EED: Helmut Schaffrath
!!!EEV: 1.0
*-
